X: 2
T: Reel de Montr\'eal
I: RJ R-41 G/D reel
M: C|
R: reel
K: G
d |\
"G"g2fe dcBA | GBDG B2AG |\
[1,3 "D7"FADF AcBA | "G"GBDG B2B :|\
[2,4 "D7"FGAB cdef | "G"g2g2 g2z :|[K:D]
|: z |\
"D"A2FA d2Ad | f2df a2ab |\
[1,3 "A7"a2g2 e2g2 | "D"b2a2 f2d :|\
[2,4 "A7"a2g2 e2c2 | "D  (D7)"d4-d2z :|
% text Roaring Jelly  R-41


